telier/img/mir.svg

<svg width="39" height="12" viewBox="0 0 39 12" fill="none" xmlns="http://www.w3.org/2000/svg">
<path d="M34.573 0.477539H27.1699C27.6012 2.92129 29.973 5.22129 32.5605 5.22129H38.4543C38.5262 5.00567 38.5262 4.64629 38.5262 4.43066C38.5262 2.27441 36.7293 0.477539 34.573 0.477539Z" fill="url(#paint0_linear_7_1478)"/>
<path d="M27.8167 5.65186V11.6175H31.4104V8.45498H34.5729C36.2979 8.45498 37.8073 7.23311 38.3104 5.65186H27.8167Z" fill="#4FAD50"/>
<path d="M15.167 0.477539V11.5463H18.3295C18.3295 11.5463 19.1201 11.5463 19.5514 10.7557C21.7076 6.51504 22.3545 5.22129 22.3545 5.22129H22.7857V11.5463H26.3795V0.477539H23.217C23.217 0.477539 22.4264 0.549418 21.9951 1.26817C20.1982 4.93379 19.192 6.80254 19.192 6.80254H18.7607V0.477539H15.167Z" fill="#4FAD50"/>
<path d="M0.0732422 11.6178V0.549072H3.66699C3.66699 0.549072 4.67325 0.54907 5.24825 2.13032C6.68575 6.29907 6.82951 6.87407 6.82951 6.87407C6.82951 6.87407 7.117 5.86782 8.41075 2.13032C8.98575 0.54907 9.99201 0.549072 9.99201 0.549072H13.5858V11.6178H9.99201V5.6522H9.56075L7.54826 11.6178H5.967L3.95451 5.6522H3.52326V11.6178H0.0732422Z" fill="#4FAD50"/>
<defs>
<linearGradient id="paint0_linear_7_1478" x1="27.1571" y1="2.88341" x2="38.5007" y2="2.88341" gradientUnits="userSpaceOnUse">
<stop stop-color="#27B1E6"/>
<stop offset="1" stop-color="#148ACA"/>
</linearGradient>
</defs>
</svg>

<svg width="39" height="12" fill="none" xmlns="http://www.w3.org/2000/svg"><path d="M34.573.478H27.17c.43 2.442 2.803 4.742 5.39 4.742h5.894c.072-.215.072-.575.072-.79 0-2.157-1.797-3.953-3.953-3.953z" fill="url(#paint0_linear_7_1478)"/><path d="M27.817 5.652v5.965h3.593V8.456h3.163c1.725 0 3.234-1.222 3.737-2.803H27.817zM15.167.478v11.068h3.162s.791 0 1.222-.79c2.157-4.241 2.804-5.535 2.804-5.535h.43v6.325h3.595V.478h-3.163s-.79.071-1.222.79c-1.797 3.666-2.803 5.535-2.803 5.535h-.431V.478h-3.594zM.073 11.618V.549h3.594s1.006 0 1.581 1.581C6.686 6.3 6.83 6.874 6.83 6.874s.287-1.006 1.58-4.744C8.987.55 9.993.55 9.993.55h3.594v11.068H9.992V5.652h-.431l-2.013 5.966H5.967L3.955 5.652h-.432v5.966H.073z" fill="#4FAD50"/><defs><linearGradient id="paint0_linear_7_1478" x1="27.157" y1="2.883" x2="38.501" y2="2.883" gradientUnits="userSpaceOnUse"><stop stop-color="#27B1E6"/><stop offset="1" stop-color="#148ACA"/></linearGradient></defs></svg>
